img/reading-girl.svg

<svg width="1029" height="980" fill="none" xmlns="http://www.w3.org/2000/svg"><path opacity=".49" fill-rule="evenodd" clip-rule="evenodd" d="M314.27 82.959C526.866 141.767 700.677 5.816 810.333.273 975.208-8.042 1143.07 173.995 922.76 492.694 702.454 811.392 612.146 883.241 371.247 850.461 178.497 824.238 49.795 641.508 12.734 513.463c-57.99-200.479 88.94-489.294 301.536-430.504z" fill="url(#paint0_linear)"/><path opacity=".49" fill-rule="evenodd" clip-rule="evenodd" d="M976.492 560.771c-4.477-22.226-34.076-27.059-45.642-7.569-27.343 46.069-87.288 128.88-142.134 176.707-76.965 67.105 51.737 133.019 125.202 103.296 73.465-29.724 69.894-234.112 62.841-271.333l-.267-1.101z" fill="url(#paint1_linear)"/><path d="M127.055 712.322C219.764 728.027 715.861 661.32 785 624.5c49.027-46.069 13.405-105.805-364.626-32.063-378.031 73.742-386.03 104.179-293.319 119.885z" fill="#CCDFDE" opacity=".4"/><path d="M268.723 662l-3.5-24-99 41c-26.5-5.667-82-16.4-92-14-12.5 3-4 28-2 28.5 1.6.4 63.333 9.167 94 13.5l102.5-45z" fill="#FCF8F5"/><path d="M163.723 628l-92.5 32c-18.5 18.5 0 39 0 40 0 .8 65 9.667 97.5 14 34.833-14.667 104.9-44.5 106.5-46.5 1.6-2-1.5-6.5-5-5.5s-103 43-103 43-59.501-9.421-79.5-9.921c-20-.5-17.334-18.5-12-25l90.5 11.921c78.4-30.8 113.5-49.5 109-50.5s-111.5-3.5-111.5-3.5z" fill="#E9621B"/><ellipse cx="300.693" cy="453.106" rx="21.613" ry="19.951" fill="#FDA551"/><ellipse cx="301.311" cy="452.916" rx="16.056" ry="14.821" fill="#F56323"/><path d="M234.467 374.074l-110.273-19.962-5.672 7.864 123.506 21.777-7.561-9.679zM234.618 357.199l-111.773-21.613-5.558 8.028 121.036 22.231-3.705-8.646zM142.606 652.996L89.498 363.375h8.646l54.96 289.621h-10.498zM158.967 651.761l-51.56-289.004h8.393l53.36 289.004h-10.193z" fill="#223762"/><circle cx="102.466" cy="345.466" r="23.466" fill="#4C93F4"/><circle cx="103.084" cy="346.084" r="10.498" fill="#223762"/><path d="M253.144 405.366l-25.937-40.757c-1.482-2.329.618-4.675 1.853-5.557 4.94-3.294 15.315-10.128 17.291-11.116 1.976-.988 4.117.412 4.94 1.235l25.936 40.139c40.016 0 62.782 25.937 69.164 38.905l-87.69 55.577c-23.219-33.099-13.379-66.075-5.557-78.426z" fill="#196DDF"/><path d="M666 961c10.4-7.6 0-53.5-6.5-75.5L627 852l-26.5 27c7.5 13.833 25.8 47 39 69s23.167 17.833 26.5 13z" fill="#C76E64"/><path d="M657.5 898.5c0-4.4 1.667-22.5 2.5-31l-26-26h-9l9 35c16.5 44.5 23.5 27.5 23.5 22z" fill="#FAB1A2"/><path d="M548.5 848.5l18.5-11 47 38 12.5 30c10 16.4 10.5 47.833 9.5 61.5-6.5 23-22 9-34.5-2.5s-51-93.5-53-101.5c-1.6-6.4-.667-12.333 0-14.5z" fill="#E98375"/><path d="M567 837.5c0-2 7.667-3.833 11.5-4.5l35 41.5 4 20c1 20-12.5 13-21.5 6.5s-29-61-29-63.5z" fill="#FAB1A2"/><path d="M663.142 495C644.342 484.6 645 468.667 648 464c-20 14.8-44.691 23.5-54.858 24l7 45 161.5 102.5c-45.167 60.5-134.8 185-132 199 2.8 14 21.833 26.833 31 31.5 0-8.5 53.5-77 101-141.5 38-51.6 58.5-88.5 64-100.5 25.5-61-139-116-162.5-129z" fill="#2160AA"/><path d="M455.142 585.5c-14-46.8 22.167-94.5 42-112.5 37.2 16 84.167 16.667 103 15-7.5 26 11 32.5 16.5 35 4.4 2 108 43.5 119 47s44.5 24 50 51c4.4 21.6-47.5 80.333-63 94.5-15.5 14.167-80.667 110-108.5 158-13.6.4-25-16.833-29-25.5-14.4-29.2-6-61.833 0-74.5 12.8-50 64.667-104.833 89-126-10.4 2.4-63.667 4.333-89 5-89.6.8-124-44.333-130-67z" fill="#0D64DB"/><path d="M673.957 264.421C668.542 252.746 648.489 230.825 640 227l9.987 238c14.315-38.419 42.546-121.744 40.948-147.69-1.598-25.945-11.564-41.213-16.978-52.889z" fill="#FAB1A2"/><path d="M624.326 43.913c-13.932-7.912-37.839-4.874-45.751 0-3.99-11.146-26.545-24.768-54.867-22.704-28.321 2.064-64.154 18.92-99.069 60.715-34.915 41.794-29.755 117.816-35.775 141.896-6.02 24.079-21.499 29.755-38.011 76.194-16.511 46.438 10.836 95.457 55.899 91.501 45.062-3.956 266.222-116.184 245.162-118.428-21.06-2.245-20.709-85.902-5.573-117.721 12.109-25.456 14.333-42.483 13.932-47.815-.688-46.439-22.016-55.727-35.947-63.639z" fill="#223762"/><path d="M527.94 212c10.807-11.6 18.513-39.5 21.014-52 21.349 4.5 62.445 14.8 56.04 20-6.404 5.2 2.669 37.167 8.006 52.5L573.972 248c-19.847-7.167-56.84-24.4-46.032-36z" fill="#FAB1A2"/><path d="M493.722 226.5l35-15.5c19.5 31.5 40.6 32.7 56 30 15.4-2.7 20.333-20.333 22-30l33 15.5 23 54.5c32.5 60-11.5 183-16.5 188.5-4 4.4-12.334 7.5-16 8.5-42 22.8-106.167 6.5-133-4.5 14-26.4-5.834-97-17.5-129l14-118z" fill="#E9621B"/><path d="M693.946 296.682l7.405-8.059 42.688 16.77-6.97 8.712-43.123-17.423z" fill="#D6E3FA"/><path d="M836.215 260.718l-41.791 33.637 57.42 21.405-15.629-55.042z" fill="#E9E6D7"/><path d="M696.233 258L546.398 419.727 543 423.464l144.399 65.234 171.58-170.9-14.95-53.682h-6.795l14.27 50.964L696.233 258z" fill="#3F89EF"/><path d="M843.792 264.115h-6.558l14.151 50.965 7.594 2.038-15.187-53.003z" fill="#596885"/><path d="M616.766 169.177c12.934-15.41 30.615-64.154 21.155-64.842-9.459-.688-11.523-1.617-30.787-3.268C587.871 99.416 571.13 81.001 565.167 72c0 0-3.311 1.488-6.019 4.988-2.709 3.5-27.313 58.203-9.288 90.125 22.531 39.903 50.738 21.328 66.906 2.064z" fill="#FDB9AB"/><path d="M443.222 266.5C458.422 235.3 484 227.333 494 227c14.4 16 13.555 42.167 12.222 53.5-.4 11.2-29.834 68.333-44.5 95.5-18 32.5-15 42.5-7.5 42.5 6 0 97.5-11 142.5-16.5 6.4-8 24.333-16.333 32.5-19.5 8.5-2.833 26-8.1 28-6.5 2 1.6-7.5 10.667-12.5 15h37c8 0 6.666 3.667 5 5.5 0 0-19.222 0-21.722.5s-1.278 5-1.278 5c4.833-.167 16.4-.4 24 0 7.6.4 5.833 3.167 4 4.5l-25.722 1s-1.278 3-.278 4.5 8.8.4 16 0c7.2-.4 6.333 3.5 5 5.5 0 0-22.722-1-22.222 2s2.922 4 9.722 4c6.8 0 5.5 3 4 4.5-7-.333-26-.8-46 0s-26-2.667-26.5-4.5c-32.4 21.6-94.5 40-121.5 46.5-79.2 16.8-94.334-17.667-92-37 3-60 32-127.5 51-166.5z" fill="#FAB1A2"/><path d="M694.167 281.81l7.469-9.744 46.5 18.5-6.138 10.175-47.831-18.931z" fill="#8FBEFF"/><defs><linearGradient id="paint0_linear" x1="110.5" y1="145" x2="923.509" y2="812.496" gradientUnits="userSpaceOnUse"><stop stop-color="#F3AA3D"/><stop offset="1" stop-color="#0F66DB"/></linearGradient><linearGradient id="paint1_linear" x1="849.081" y1="653.452" x2="962.865" y2="788.338" gradientUnits="userSpaceOnUse"><stop stop-color="#0F66DB"/><stop offset=".82" stop-color="#FFD46A"/></linearGradient></defs></svg>

<svg width="1029" height="980" viewBox="0 0 1029 980" fill="none" xmlns="http://www.w3.org/2000/svg">
<path opacity="0.49" fill-rule="evenodd" clip-rule="evenodd" d="M314.27 82.959C526.866 141.767 700.677 5.81616 810.333 0.272962C975.208 -8.04184 1143.07 173.995 922.76 492.694C702.454 811.392 612.146 883.241 371.247 850.461C178.497 824.238 49.7952 641.508 12.7339 513.463C-45.2565 312.984 101.674 24.1691 314.27 82.959Z" fill="url(#paint0_linear)"/>
<path opacity="0.49" fill-rule="evenodd" clip-rule="evenodd" d="M976.492 560.771C972.015 538.545 942.416 533.712 930.85 553.202C903.507 599.271 843.562 682.082 788.716 729.909C711.751 797.014 840.453 862.928 913.918 833.205C987.383 803.481 983.812 599.093 976.759 561.872L976.492 560.771Z" fill="url(#paint1_linear)"/>
<g style="mix-blend-mode:multiply" opacity="0.4">
<path d="M127.055 712.322C219.764 728.027 715.861 661.32 785 624.5C834.027 578.431 798.405 518.695 420.374 592.437C42.343 666.179 34.3448 696.616 127.055 712.322Z" fill="#CCDFDE"/>
</g>
<path d="M268.723 662L265.223 638L166.223 679C139.723 673.333 84.2225 662.6 74.2225 665C61.7225 668 70.2225 693 72.2225 693.5C73.8225 693.9 135.556 702.667 166.223 707L268.723 662Z" fill="#FCF8F5"/>
<path d="M163.723 628L71.2226 660C52.7226 678.5 71.2226 699 71.2226 700C71.2226 700.8 136.223 709.667 168.723 714C203.556 699.333 273.623 669.5 275.223 667.5C276.823 665.5 273.723 661 270.223 662C266.723 663 167.223 705 167.223 705C167.223 705 107.722 695.579 87.7225 695.079C67.7226 694.579 70.3892 676.579 75.7225 670.079L166.223 682C244.623 651.2 279.723 632.5 275.223 631.5C270.723 630.5 163.723 628 163.723 628Z" fill="#E9621B"/>
<ellipse cx="300.693" cy="453.106" rx="21.6135" ry="19.9509" fill="#FDA551"/>
<ellipse cx="301.311" cy="452.916" rx="16.0558" ry="14.8207" fill="#F56323"/>
<path d="M234.467 374.074L124.194 354.112L118.522 361.976L242.028 383.753L234.467 374.074Z" fill="#223762"/>
<path d="M234.618 357.199L122.845 335.586L117.287 343.614L238.323 365.845L234.618 357.199Z" fill="#223762"/>
<path d="M142.606 652.996L89.4984 363.375H98.1438L153.104 652.996H142.606Z" fill="#223762"/>
<path d="M158.967 651.761L107.407 362.757H115.8L169.16 651.761H158.967Z" fill="#223762"/>
<circle cx="102.466" cy="345.466" r="23.4661" fill="#4C93F4"/>
<circle cx="103.084" cy="346.084" r="10.498" fill="#223762"/>
<path d="M253.144 405.366L227.207 364.609C225.725 362.28 227.825 359.934 229.06 359.052C234 355.758 244.375 348.924 246.351 347.936C248.327 346.948 250.468 348.348 251.291 349.171L277.227 389.31C317.243 389.31 340.009 415.247 346.391 428.215L258.701 483.792C235.482 450.693 245.322 417.717 253.144 405.366Z" fill="#196DDF"/>
<path d="M666 961C676.4 953.4 666 907.5 659.5 885.5L627 852L600.5 879C608 892.833 626.3 926 639.5 948C652.7 970 662.667 965.833 666 961Z" fill="#C76E64"/>
<path d="M657.5 898.5C657.5 894.1 659.167 876 660 867.5L634 841.5H625L634 876.5C650.5 921 657.5 904 657.5 898.5Z" fill="#FAB1A2"/>
<path d="M548.5 848.5L567 837.5L614 875.5L626.5 905.5C636.5 921.9 637 953.333 636 967C629.5 990 614 976 601.5 964.5C589 953 550.5 871 548.5 863C546.9 856.6 547.833 850.667 548.5 848.5Z" fill="#E98375"/>
<path d="M567 837.5C567 835.5 574.667 833.667 578.5 833L613.5 874.5L617.5 894.5C618.5 914.5 605 907.5 596 901C587 894.5 567 840 567 837.5Z" fill="#FAB1A2"/>
<path d="M663.142 495C644.342 484.6 645 468.667 648 464C628 478.8 603.309 487.5 593.142 488L600.142 533L761.642 635.5C716.475 696 626.842 820.5 629.642 834.5C632.442 848.5 651.475 861.333 660.642 866C660.642 857.5 714.142 789 761.642 724.5C799.642 672.9 820.142 636 825.642 624C851.142 563 686.642 508 663.142 495Z" fill="#2160AA"/>
<path d="M455.142 585.5C441.142 538.7 477.309 491 497.142 473C534.342 489 581.309 489.667 600.142 488C592.642 514 611.142 520.5 616.642 523C621.042 525 724.642 566.5 735.642 570C746.642 573.5 780.142 594 785.642 621C790.042 642.6 738.142 701.333 722.642 715.5C707.142 729.667 641.975 825.5 614.142 873.5C600.542 873.9 589.142 856.667 585.142 848C570.742 818.8 579.142 786.167 585.142 773.5C597.942 723.5 649.809 668.667 674.142 647.5C663.742 649.9 610.475 651.833 585.142 652.5C495.542 653.3 461.142 608.167 455.142 585.5Z" fill="#0D64DB"/>
<path d="M673.957 264.421C668.542 252.746 648.489 230.825 640 227L649.987 465C664.302 426.581 692.533 343.256 690.935 317.31C689.337 291.365 679.371 276.097 673.957 264.421Z" fill="#FAB1A2"/>
<path d="M624.326 43.9125C610.394 36.0006 586.487 39.0393 578.575 43.9125C574.585 32.7672 552.03 19.1452 523.708 21.2092C495.387 23.2731 459.554 40.1287 424.639 81.9235C389.724 123.718 394.884 199.74 388.864 223.82C382.844 247.899 367.365 253.575 350.853 300.014C334.342 346.452 361.689 395.471 406.752 391.515C451.814 387.559 672.974 275.331 651.914 273.087C630.854 270.842 631.205 187.185 646.341 155.366C658.45 129.91 660.674 112.883 660.273 107.551C659.585 61.1121 638.257 51.8244 624.326 43.9125Z" fill="#223762"/>
<path d="M527.94 212C538.747 200.4 546.453 172.5 548.954 160C570.303 164.5 611.399 174.8 604.994 180C598.59 185.2 607.663 217.167 613 232.5L573.972 248C554.125 240.833 517.132 223.6 527.94 212Z" fill="#FAB1A2"/>
<path d="M493.722 226.5L528.722 211C548.222 242.5 569.322 243.7 584.722 241C600.122 238.3 605.055 220.667 606.722 211L639.722 226.5L662.722 281C695.222 341 651.222 464 646.222 469.5C642.222 473.9 633.888 477 630.222 478C588.222 500.8 524.055 484.5 497.222 473.5C511.222 447.1 491.388 376.5 479.722 344.5L493.722 226.5Z" fill="#E9621B"/>
<path d="M693.946 296.682L701.351 288.623L744.039 305.393L737.069 314.105L693.946 296.682Z" fill="#D6E3FA"/>
<path d="M836.215 260.718L794.424 294.355L851.844 315.76L836.215 260.718Z" fill="#E9E6D7"/>
<path d="M696.233 258L546.398 419.727L543 423.464L687.399 488.698L858.979 317.798L844.029 264.116H837.234L851.504 315.08L696.233 258Z" fill="#3F89EF"/>
<path d="M843.792 264.115H837.234L851.385 315.08L858.979 317.118L843.792 264.115Z" fill="#596885"/>
<path d="M616.766 169.177C629.7 153.767 647.381 105.023 637.921 104.335C628.462 103.647 626.398 102.718 607.134 101.067C587.871 99.416 571.13 81.0011 565.167 72C565.167 72 561.856 73.4879 559.148 76.9879C556.439 80.4879 531.835 135.191 549.86 167.113C572.391 207.016 600.598 188.441 616.766 169.177Z" fill="#FDB9AB"/>
<path d="M443.222 266.5C458.422 235.3 484 227.333 494 227C508.4 243 507.555 269.167 506.222 280.5C505.822 291.7 476.388 348.833 461.722 376C443.722 408.5 446.722 418.5 454.222 418.5C460.222 418.5 551.722 407.5 596.722 402C603.122 394 621.055 385.667 629.222 382.5C637.722 379.667 655.222 374.4 657.222 376C659.222 377.6 649.722 386.667 644.722 391H681.722C689.722 391 688.388 394.667 686.722 396.5C686.722 396.5 667.5 396.5 665 397C662.5 397.5 663.722 402 663.722 402C668.555 401.833 680.122 401.6 687.722 402C695.322 402.4 693.555 405.167 691.722 406.5L666 407.5C666 407.5 664.722 410.5 665.722 412C666.722 413.5 674.522 412.4 681.722 412C688.922 411.6 688.055 415.5 686.722 417.5C686.722 417.5 664 416.5 664.5 419.5C665 422.5 667.422 423.5 674.222 423.5C681.022 423.5 679.722 426.5 678.222 428C671.222 427.667 652.222 427.2 632.222 428C612.222 428.8 606.222 425.333 605.722 423.5C573.322 445.1 511.222 463.5 484.222 470C405.022 486.8 389.888 452.333 392.222 433C395.222 373 424.222 305.5 443.222 266.5Z" fill="#FAB1A2"/>
<path d="M694.167 281.81L701.636 272.066L748.136 290.566L741.998 300.741L694.167 281.81Z" fill="#8FBEFF"/>
<defs>
<linearGradient id="paint0_linear" x1="110.5" y1="145" x2="923.509" y2="812.496" gradientUnits="userSpaceOnUse">
<stop stop-color="#F3AA3D"/>
<stop offset="1" stop-color="#0F66DB"/>
</linearGradient>
<linearGradient id="paint1_linear" x1="849.081" y1="653.452" x2="962.865" y2="788.338" gradientUnits="userSpaceOnUse">
<stop stop-color="#0F66DB"/>
<stop offset="0.819505" stop-color="#FFD46A"/>
</linearGradient>
</defs>
</svg>
